dhis-2/dhis-support/dhis-support-system/src/main/resources/SVGs/mosquito_outline.svg

<svg width="48" height="48" viewBox="0 0 48 48" fill="none" xmlns="http://www.w3.org/2000/svg">
<path d="M14.0699 4.08594V4.09384C13.9319 4.09364 13.7949 4.14424 13.6889 4.25394C13.4779 4.46733 13.4769 4.81393 13.6889 5.02933L19.3548 10.824L19.3438 14.8259C19.3428 14.9719 19.4028 15.1109 19.5018 15.2149L22.3868 18.1659V18.5019L22.3848 19.1228C19.5688 19.6188 13.7629 20.6558 10.5619 21.3198C9.44085 21.5528 8.63566 21.7408 8.39446 21.8438C7.22158 22.3418 7.23727 24.3238 9.59375 25.0978C11.4129 25.5948 13.6339 26.0088 15.3709 25.9178C15.4639 25.9308 15.5699 25.9078 15.6429 25.9038C15.6449 25.9038 15.6479 25.9048 15.6499 25.9038L15.5659 26.0468L9.88864 34.4787C9.72074 34.7287 9.78414 35.0707 10.0309 35.2416C10.1239 35.3036 10.2279 35.3386 10.3319 35.3396C10.5059 35.3406 10.6749 35.2556 10.7789 35.0996L16.5099 26.5658H16.5139L17.2459 25.4688C17.2668 25.4608 17.2888 25.4568 17.3028 25.4408C17.8618 25.1608 18.5788 24.7798 19.3338 24.3688L19.3258 26.6168L19.3198 27.6857C19.3218 27.6857 19.3258 27.6867 19.3278 27.6877L19.3088 32.1947L18.5408 34.0157L14.7189 43.0956C14.6019 43.3745 14.7299 43.6955 15.0039 43.8135C15.0729 43.8415 15.1439 43.8615 15.2149 43.8605C15.4249 43.8615 15.6229 43.7355 15.7109 43.5265L18.8948 35.9666V35.9626L20.3438 32.5227C20.3708 32.4537 20.3858 32.3817 20.3928 32.3087L20.4058 27.9587H20.4018L20.4138 24.1408C20.5108 23.9618 20.6128 23.7808 20.7168 23.6048C21.3058 23.2788 21.8758 22.9608 22.3708 22.6818L22.3538 28.2557L22.3358 31.9507C22.3298 32.8567 23.0628 33.5977 23.9548 33.6017C24.8468 33.6047 25.5767 32.8697 25.5797 31.9647L25.5977 28.2207L25.6147 22.6948C26.1367 22.9928 26.7397 23.3358 27.3627 23.6878C27.4327 23.7998 27.4947 23.9138 27.5607 24.0288L27.5487 27.8727L27.5347 32.3377C27.5347 32.4107 27.5477 32.4827 27.5757 32.5507L29.1797 36.4316C29.1787 36.4336 29.1797 36.4346 29.1797 36.4386L32.1307 43.5875C32.2167 43.7975 32.4167 43.9225 32.6267 43.9235C32.6967 43.9235 32.7697 43.9105 32.8377 43.8805C33.1127 43.7635 33.2437 43.4405 33.1287 43.1615L29.5657 34.5327C29.5667 34.5307 29.5657 34.5297 29.5657 34.5247L28.6167 32.2247L28.6327 27.5677H28.6287L28.6347 26.2928L28.6387 24.3998C29.3907 24.8168 30.1027 25.2028 30.6597 25.4878C30.6807 25.4958 30.6977 25.4998 30.7187 25.5158L31.3197 26.4258L31.3217 26.4218L37.1226 35.1926C37.2266 35.3496 37.3946 35.4346 37.5676 35.4356C37.6716 35.4356 37.7776 35.4056 37.8706 35.3436C38.1176 35.1747 38.1836 34.8307 38.0176 34.5797L32.3157 25.9568C34.1236 26.1458 36.1496 25.5098 38.0976 25.2398C40.6666 24.8838 40.7666 22.4638 39.5976 21.9568C39.3276 21.8398 38.3476 21.6058 37.0056 21.3218L37.0016 21.3258C33.7376 20.6358 28.3137 19.6258 25.6227 19.1309L25.6307 18.3869V18.3849V18.1659L28.5347 15.2379C28.6367 15.1359 28.6947 14.9969 28.6947 14.8519L28.7107 10.85L34.4156 5.09773C34.6276 4.88423 34.6296 4.53773 34.4156 4.32233C34.2046 4.10714 33.8616 4.10744 33.6496 4.32233L27.7867 10.23C27.6847 10.333 27.6257 10.473 27.6247 10.619L27.6147 14.6209L25.6327 16.6129L25.6387 15.0449C25.6387 14.3069 25.1538 13.6859 24.4918 13.4769L24.1458 9.56047C24.0848 8.90488 23.9898 8.90338 23.9278 9.55857L23.5528 13.4709C22.8888 13.6749 22.4008 14.2969 22.3978 15.0349L22.3908 16.6039L20.4218 14.5919L20.4358 10.59C20.4358 10.444 20.3778 10.305 20.2788 10.201L14.4549 4.24804C14.3499 4.14064 14.2089 4.08634 14.0699 4.08594ZM24.0198 11.5619C24.0458 11.5619 24.0658 11.5829 24.0658 11.6089V13.9219C24.3618 13.9189 25.0948 14.1999 25.1248 15.1659L25.0958 19.5488L38.2206 22.1128C40.5906 22.5648 39.9196 24.2488 38.5916 24.5918C37.4846 24.8768 34.6166 25.3368 32.6127 25.4388C31.8807 25.4768 31.3917 25.1928 30.9607 25.0078L25.0858 21.9748C25.0858 25.5128 25.0658 28.5417 25.0658 32.0797C24.9778 33.6027 22.8298 33.2227 22.8498 32.0797C22.8498 28.5307 22.8828 25.3648 22.8828 21.8158L17.0209 25.0078C16.2789 25.3968 15.4769 25.4068 14.8669 25.4098C12.8949 25.2798 11.0899 25.0418 9.73824 24.6348C7.93187 24.0908 7.59067 22.3828 9.27725 22.1368L22.8961 19.5348L22.9161 15.1659C22.9691 14.0789 23.6781 13.9559 23.9731 13.9219V11.6089C23.9731 11.5829 23.9941 11.5619 24.0201 11.5619H24.0198Z" fill="#333333"/>
</svg>

<?xml version="1.0" encoding="UTF-8" standalone="no"?>
<!-- Created with Inkscape (http://www.inkscape.org/) -->
<svg id="svg8" xmlns:rdf="http://www.w3.org/1999/02/22-rdf-syntax-ns#" xmlns="http://www.w3.org/2000/svg" xmlns:osb="http://www.openswatchbook.org/uri/2009/osb" height="48" width="48" version="1.1" xmlns:cc="http://creativecommons.org/ns#" viewBox="0 0 12.7 12.7" xmlns:dc="http://purl.org/dc/elements/1.1/">
 <title id="title4753">UIO-icon</title>
 <metadata id="metadata5">
  <rdf:RDF>
   <cc:Work rdf:about="">
    <dc:format>image/svg+xml</dc:format>
    <dc:type rdf:resource="http://purl.org/dc/dcmitype/StillImage"/>
    <dc:title>UIO-icon</dc:title>
    <dc:creator>
     <cc:Agent>
      <dc:title>Joaquín Urbano</dc:title>
     </cc:Agent>
    </dc:creator>
    <dc:rights>
     <cc:Agent>
      <dc:title>GPL</dc:title>
     </cc:Agent>
    </dc:rights>
   </cc:Work>
  </rdf:RDF>
 </metadata>
 <g id="layer1" transform="translate(0,-284.3)" fill="#333">
  <path id="path48057-4-5" d="m14.07 4.0859v0.0079c-0.138-0.0002-0.275 0.0504-0.381 0.1601-0.211 0.2134-0.212 0.56 0 0.7754l5.666 5.7947-0.011 4.002c-0.001 0.146 0.059 0.285 0.158 0.389l2.885 2.951v0.336l-0.002 0.621c-2.816 0.496-8.622 1.533-11.823 2.197-1.1211 0.233-1.9263 0.421-2.1675 0.524-1.1729 0.498-1.1572 2.48 1.1993 3.254 1.8192 0.497 4.0402 0.911 5.7772 0.82 0.093 0.013 0.199-0.01 0.272-0.014 0.002 0 0.005 0.001 0.007 0l-0.084 0.143-5.6773 8.432c-0.1679 0.25-0.1045 0.592 0.1423 0.763 0.093 0.062 0.197 0.097 0.301 0.098 0.174 0.001 0.343-0.084 0.447-0.24l5.731-8.534h0.004l0.732-1.097c0.021-0.008 0.043-0.012 0.057-0.028 0.559-0.28 1.276-0.661 2.031-1.072l-0.008 2.248-0.006 1.069c0.002 0 0.006 0.001 0.008 0.002l-0.019 4.507-0.768 1.821-3.822 9.08c-0.117 0.279 0.011 0.6 0.285 0.718 0.069 0.028 0.14 0.048 0.211 0.047 0.21 0.001 0.408-0.125 0.496-0.334l3.184-7.56v-0.004l1.449-3.44c0.027-0.069 0.042-0.141 0.049-0.214l0.013-4.35h-0.004l0.012-3.818c0.097-0.179 0.199-0.36 0.303-0.536 0.589-0.326 1.159-0.644 1.654-0.923l-0.017 5.574-0.018 3.695c-0.006 0.906 0.727 1.647 1.619 1.651 0.892 0.003 1.622-0.732 1.625-1.637l0.018-3.744 0.017-5.526c0.522 0.298 1.125 0.641 1.748 0.993 0.07 0.112 0.132 0.226 0.198 0.341l-0.012 3.844-0.014 4.465c0 0.073 0.013 0.145 0.041 0.213l1.604 3.881c-0.001 0.002 0 0.003 0 0.007l2.951 7.149c0.086 0.21 0.286 0.335 0.496 0.336 0.07 0 0.143-0.013 0.211-0.043 0.275-0.117 0.406-0.44 0.291-0.719l-3.563-8.629c0.001-0.002 0-0.003 0-0.008l-0.949-2.3 0.016-4.657h-0.004l0.006-1.275 0.004-1.893c0.752 0.417 1.464 0.803 2.021 1.088 0.021 0.008 0.038 0.012 0.059 0.028l0.601 0.91 0.002-0.004 5.801 8.771c0.104 0.157 0.272 0.242 0.445 0.243 0.104 0 0.21-0.03 0.303-0.092 0.247-0.169 0.313-0.513 0.147-0.764l-5.702-8.623c1.808 0.189 3.834-0.447 5.782-0.717 2.569-0.356 2.669-2.776 1.5-3.283-0.27-0.117-1.25-0.351-2.592-0.635l-0.004 0.004c-3.264-0.69-8.688-1.7-11.379-2.195l0.008-0.744v-0.002-0.219l2.904-2.928c0.102-0.102 0.16-0.241 0.16-0.386l0.016-4.002 5.705-5.7523c0.212-0.2135 0.214-0.56 0-0.7754-0.211-0.2152-0.554-0.2149-0.766 0l-5.863 5.9077c-0.102 0.103-0.161 0.243-0.162 0.389l-0.01 4.002-1.982 1.992 0.006-1.568c0-0.738-0.485-1.359-1.147-1.568l-0.346-3.9165c-0.061-0.6556-0.156-0.6571-0.218-0.0019l-0.375 3.9124c-0.664 0.204-1.152 0.826-1.155 1.564l-0.007 1.569-1.969-2.012 0.014-4.002c0-0.146-0.058-0.285-0.157-0.389l-5.824-5.953c-0.105-0.1074-0.246-0.1617-0.385-0.1621zm9.95 7.4761c0.026 0 0.046 0.021 0.046 0.047v2.313c0.296-0.003 1.029 0.278 1.059 1.244l-0.029 4.383 13.125 2.564c2.37 0.452 1.699 2.136 0.371 2.479-1.107 0.285-3.975 0.745-5.979 0.847-0.732 0.038-1.221-0.246-1.652-0.431l-5.875-3.033c0 3.538-0.02 6.567-0.02 10.105-0.088 1.523-2.236 1.143-2.216 0 0-3.549 0.033-6.715 0.033-10.264l-5.862 3.192c-0.742 0.389-1.544 0.399-2.154 0.402-1.972-0.13-3.777-0.368-5.1287-0.775-1.8064-0.544-2.1476-2.252-0.461-2.498l13.619-2.602 0.02-4.369c0.053-1.087 0.762-1.21 1.057-1.244v-2.313c0-0.026 0.021-0.047 0.047-0.047z" transform="matrix(.26458 0 0 .26458 0 284.3)"/>
 </g>
</svg>
